X:1
T:Title
%%score { 1 | 2 }
L:1/8
M:4/4
K:F
V:1 treble nm="Grand Piano"
V:2 bass 
V:1
 z4 z2[Q:1/4=100] c=B | d2 c2 A2 _A=A | [Dc]2 [DB]2 [B,D]2 [=B,G][B,F] | [CE]2 [CG]2 [Ec]2 [EB]2 | %4
 A6 c=B | d2 c2 A2 _A=A | [Dc]2 [DB]2 [B,D]2 [=B,G][B,F] | [G,CE]3 [DEB] [CEA]2 [B,CG]2 | %8
[M:3/4] [A,CF]6 |[M:1/4] [A,CF]2 |[M:4/4] [EG]2 [EG]2 [EG]2 [CF][EG] | A6 A2 | %12
 B2 B2 [EB]2 [EA][EB] | c6 c2 | d2 c2 A2 GF |[M:9/8] [FB]2 [Fc]- [Fc] [Fd]2- [Fd] [DB]2 | %16
[M:4/4] [CA]2 [Fc]2 [EB]2 [EA]>G |[M:3/4] F6 |] %18
V:2
 z4 z2 [F,A,F][F,_A,F] | [F,B,F]2 [F,A,F]2 [F,CF]2 [F,=B,F][F,CF] | %2
 [B,,B,]2 [B,,F,]2 [B,,F,]2 [G,,G,][G,,G,] | [C,G,]2 [C,E,]2 [C,G,]2 [C,C]2 | %4
 [F,CF]6 [F,A,F][F,_A,F] | [F,B,F]2 [F,A,F]2 [F,CF]2 [F,=B,F][F,CF] | %6
 [B,,B,]2 [B,,F,]2 [B,,F,]2 [G,,G,][G,,G,] | C,3 C, C,2 C,2 |[M:3/4] F,6 |[M:1/4] F,2 | %10
[M:4/4] [C,C]2 [C,C]2 [C,C]2 [D,A,][C,B,] | [F,CF]6 [F,CF]2 | %12
 [G,CE]2 [G,CE]2 [C,G,]2 [C,^F,][C,G,] | [F,A,F]6 [F,A,F]2 | %14
 [F,B,F]2 [F,A,F]2 [F,CF]2 [F,B,C][_E,A,C] | %15
[M:9/8] [D,B,]2 [C,A,]- [C,A,] [B,,B,]2- [B,,B,] [B,,F,]2 | %16
[M:4/4] [C,F,]2 [C,A,]2 [C,G,]2 [C,C]>[C,B,C] |[M:3/4] [F,A,C]6 |] %18

